!!!!SEGMENT: pl-kozmzk--mzk-m-159--006_walczynski-franciszek--praeludia-organi-op-5-allegretto.krn
!!!cenid: 18xx:2749
!!!COM: Walczyński, Franciszek
!!!COM-rismID: pe30021989
!!!CDT: ~1852-1937
!!!CNT: Polish
!!!GTL: Praeludia organi op. 5
!!!OTL: 6. Allegretto
!!!PDT: 1894
!!!AGN: Secular; Prelude
!!!SMS-siglum: PL-KOZmzk
!!!SMS-shelfmark: mzk/m/159
!!!SMS-shelfwork: 006 G
!!!SMS-variant:
!!!SMS-altvar:
!!!NIFC-rismSourceID: 1001116619
!!!NIFC-islandoraID: pl-kozmzk:2265
!!!URL-pdf-islandora: https://repozytorium.nifc.pl/islandora/object/pl-kozmzk%3A2265/datastream/PDF/view
!!!URL-scan: https://polish.musicsources.pl/pl/lokalizacje/galeria/druki-muzyczne/7406 @EN{Scan on Polish Music Herritage in Open Access Website} @PL{Skany w portalu Dziedzictwo Muzyki Polskiej w otwartym dostępie}
!!!ONB-nifc: UWAGA: numeracja plików zgodna z numeracją źrodłową
!!!OMD: 6. Allegretto.
!!!AIN: 2 empty
!!!key:
**kern	**kern	**dynam
*part2	*part1	*part1
*staff2	*staff1	*
*Iempty	*Iempty	*
*I"	*I"	*
*clefF4	*clefG2	*
*k[f#c#]	*k[f#c#]	*
*D:	*D:	*
*M3/4	*M3/4	*
=1	=1	=1
*^	*^	*
2.r	(8d\L	(8f#/L	2.r	p
.	8c#\	8e/	.	.
.	8B\	8g/	.	<
.	8A\	8f#/	.	.
.	8G\	8b/	.	.
.	8F#\J	8a/J	.	.
=2	=2	=2	=2	=2
4r	2.E\)	4.g#X/	4r	[
8r	.	.	8r	.
(8B/L	.	8dd/L	4.g#\	.
8e/	.	8cc#/	.	.
8d/J)	.	8b/J)	.	.
=3	=3	=3	=3	=3
(2c#/	[2.A\	(4.a/	2.gn\	.
.	.	8ee/L	.	>
8d/L	.	8b/	.	.
8e/J	.	8cc#/J	.	.
=4	=4	=4	=4	=4
8f#/L	2.A\]	8dd/L	8a\L	.
8e/	.	8cc#/	8g\	.
8d/	.	8b/	8f#\	.
8c#/	.	8a/	8e\J	.
8B/	.	8g/	4d\	.
8A/J)	.	8f#/J)	.	]]
=5	=5	=5	=5	=5
([4A/	(8A\L	(8f#/L	4c#\	.
.	8G\J)	8e/J	.	.
4.A/]	4.F#\	4.a^/	4.d\	.
8B/)	8G\	8g/	8e\	.
=6	=6	=6	=6	=6
!LO:TX:b:i:t=Ped.	!	!	!	!
(2A/	4A\	4f#/	2d\	.
.	(2AA\	2e/)	.	.
4G/	.	.	4c#\	.
=7	=7	=7	=7	=7
4F#/	4BB\	(4d/	2B\	.
4G/	2GG\	4e~/	.	.
!LO:TX:b:i:t=rit.	!	!	!	!
4B/	.	4e#X~/	8d\L	.
.	.	.	16c#\L	.
.	.	.	16B\JJ	.
=8	=8	=8	=8	=8
!	!	!	!	!LO:DY:rj
2.A#X/)	2.FF#;\)	2.f#;/)	2.c#\	f
!!LO:LB:g=original
=9	=9	=9	=9	=9
(4.c#/	2.r	2.rg	2.r	.
8e/L	.	.	.	.
8d/	.	.	.	.
8B/J	.	.	.	.
=10	=10	=10	=10	=10
!	!	!	!	!LO:DY:b=2
2.A#X^/)	8r	2.rg	2.r	p
.	8G\L	.	.	.
.	8F#\	.	.	.
.	8E\	.	.	.
.	8D\	.	.	.
.	8C#\J	.	.	.
=11	=11	=11	=11	=11
(8B/L	(8D\L	2.rg	2.r	.
8c#/J	8C#\J	.	.	.
4d/	4BB\	.	.	.
[4B/)	4D\)	.	.	.
=12	=12	=12	=12	=12
4B/]	2D#X\	2.rdd	(4.f#\	f
(4F#/	.	.	.	.
.	.	.	8a\L	.
8G/L	8E\L	.	8g\	.
8B/J)	8G\J	.	8e\J	.
=13	=13	=13	=13	=13
(8A/L	(4.F#\	2.rdd	2.d#X\)	.
8G#X/	.	.	.	.
8A/	.	.	.	.
8cn/	8A\L	.	.	.
8B/	8G#\	.	.	.
8A/J)	8F#\J)	.	.	.
=14	=14	=14	=14	=14
[2.B/	8G\L	2.rdd	(8e\L	.
.	8D#X\J	.	8f#\J	.
.	4E\	.	4g\	.
.	4G\	.	4e\)	.
=15	=15	=15	=15	=15
!	!	!	!	!LO:DY:rj
(4B/]	[2.F#\	(4.cc#/	[2.f#\	f
4A#X/	.	.	.	.
.	.	8ee/L	.	.
8B/L	.	8dd/	.	.
8d/J	.	8b/J	.	.
=16	=16	=16	=16	=16
8c#/L	2.F#\]	2.a#X/)	4.f#\]	.
8B#X/	.	.	.	.
8c#/	.	.	.	.
8e/	.	.	8g\L	.
8d/	.	.	8f#\	.
8c#/J	.	.	8e\J	.
=17	=17	=17	=17	=17
8B/L	(8D\L	(8b/L	2.f#\	.
8A#X/J	8C#X\J	8cc#/J	.	.
2B/)	4BB\	4dd/	.	.
.	4D\	4b/)	.	.
!!LO:LB:g=original
=18	=18	=18	=18	=18
(4B/	8E\L	(8ee/L	(8g\L	.
.	8F#\J	8dd/	8f#\	.
8A#X/L	4G\	8cc#/	8e\	.
8B/J	.	8b/	8d\	.
8cn/L	8D#X\L	8a/	8f#\	.
8B/J)	8E\J)	8g/J)	8e\J)	.
=19	=19	=19	=19	=19
2A/	4A\	4f#/	8e\L	.
.	.	.	8d\J	.
!	!	!LO:TX:b:i:t=rit.	!	!
.	2AA\	2e/	4.d\	.
([4G/	.	.	.	.
.	.	.	8c#\	.
=20	=20	=20	=20	=20
4G/]	2.D;\	2.d;/	2.A\	.
8F#/L	.	.	.	.
8E/J	.	.	.	.
4F#/)	.	.	.	.
=21	=21	=21	=21	=21
(2F#/	[2.D\	(4.e/	(2.cn\	pp
.	.	8a/L	.	<
8G/L	.	8e/	.	.
8A/J	.	8f#/J	.	.
=22	=22	=22	=22	=22
2.B/)	2.D\]	[2.g/)	2.d\)	[
=23	=23	=23	=23	=23
(2.B-X/	[2.D\	(4.g/]	[2.d\	.
.	.	8dd/L	.	>
.	.	8d/	.	.
.	.	8e/J	.	.
=24	=24	=24	=24	=24
2.A/)	2.D\]	2.f#/)	2.d\]	]
=25	=25	=25	=25	=25
!LO:TX:b:i:t=Ped.	!	!	!	!
([2.D/ 2.cn	[2.DD\	(4.e/	[2.d\	.
.	.	8a/L	.	.
.	.	8e/	.	.
.	.	8f#/J	.	.
=26	=26	=26	=26	=26
2.D/]) 2.B	2.DD\]	2.g/)	2.d\]	.
=27	=27	=27	=27	=27
([2.D/ 2.B-X	[2.DD\	(4.dd/	(2.g\	f <
.	.	8ee/L	.	.
.	.	8dd/	.	.
.	.	8ee/J	.	.
=28	=28	=28	=28	=28
2.D/_) [2.A	2.DD\_	[2.ff#/	[2.f#\)	.
=29	=29	=29	=29	=29
4D/] 4A]	4DD\]	4ff#/])	4f#\]	.
4r	4ryy	4r	4ryy	.
4r	4ryy	4r	4ryy	[[
*v	*v	*	*	*
*	*v	*v	*
==	==	==
*-	*-	*-
!!!system-decoration: {(s1,s2)}
!!!EED: Andrzej Borzym
!!!EEV: 2021-08-08
!!!ENC: Krzysztof Stępień
!!!END: 2021-07-26
